MonoIcons/scalable/status/audio-volume-high-symbolic.svg

<?xml version="1.0" encoding="UTF-8"?>
<svg height="16px" viewBox="0 0 16 16" width="16px" xmlns="http://www.w3.org/2000/svg">
    <path d="m 7 1.007812 c -0.296875 -0.003906 -0.578125 0.125 -0.769531 0.351563 l -3.230469 3.640625 h -1 c -1.09375 0 -2 0.84375 -2 2 v 2 c 0 1.089844 0.910156 2 2 2 h 1 l 3.230469 3.640625 c 0.210937 0.253906 0.492187 0.363281 0.769531 0.359375 z m 6.460938 0.960938 c -0.191407 -0.003906 -0.386719 0.054688 -0.558594 0.167969 c -0.457032 0.3125 -0.578125 0.933593 -0.269532 1.390625 c 1.824219 2.707031 1.824219 6.238281 0 8.945312 c -0.308593 0.457032 -0.1875 1.078125 0.269532 1.390625 c 0.457031 0.308594 1.078125 0.1875 1.390625 -0.269531 c 1.136719 -1.691406 1.707031 -3.640625 1.707031 -5.59375 s -0.570312 -3.902344 -1.707031 -5.59375 c -0.195313 -0.285156 -0.511719 -0.4375 -0.832031 -0.4375 z m -3.421876 2.019531 c -0.222656 -0.007812 -0.453124 0.058594 -0.644531 0.203125 c -0.261719 0.199219 -0.394531 0.5 -0.394531 0.804688 v 0.058594 c 0.011719 0.191406 0.074219 0.375 0.199219 0.535156 c 1.074219 1.429687 1.074219 3.390625 0 4.816406 c -0.125 0.164062 -0.1875 0.347656 -0.199219 0.535156 v 0.0625 c 0 0.304688 0.132812 0.605469 0.394531 0.804688 c 0.441407 0.332031 1.066407 0.242187 1.398438 -0.199219 c 0.804687 -1.066406 1.207031 -2.335937 1.207031 -3.609375 s -0.402344 -2.542969 -1.207031 -3.613281 c -0.183594 -0.246094 -0.464844 -0.382813 -0.753907 -0.398438 z m 0 0" fill="#2e3436"/>
</svg>

<svg width="16" height="16" viewBox="0 0 16 16" fill="none" xmlns="http://www.w3.org/2000/svg">
<g clip-path="url(#clip0_231_1259)">
<path d="M7.00001 1.00765C6.70313 1.00375 6.42188 1.13265 6.23048 1.35922L3 4.99985H2C0.906251 4.99985 0 5.8436 0 6.99985V8.99985C0 10.0897 0.910157 10.9999 2 10.9999H3L6.23048 14.6405C6.44141 14.8944 6.72266 15.0038 7.00001 14.9999V1.00765ZM13.461 1.96859C13.2695 1.96469 13.0742 2.02328 12.9024 2.13656C12.4453 2.44906 12.3242 3.07016 12.6328 3.52719C14.457 6.23422 14.457 9.76548 12.6328 12.4725C12.3242 12.9295 12.4453 13.5506 12.9024 13.8631C13.3594 14.1717 13.9805 14.0506 14.293 13.5936C15.4297 11.9022 16 9.95298 16 7.99985C16 6.04672 15.4297 4.0975 14.293 2.40609C14.0977 2.12094 13.7813 1.96859 13.461 1.96859V1.96859ZM10.0391 3.98813C9.81642 3.98031 9.58595 4.04672 9.39454 4.19125C9.13282 4.39047 9.00001 4.69125 9.00001 4.99594V5.05453C9.01173 5.24594 9.07423 5.42954 9.19923 5.58969C10.2734 7.01938 10.2734 8.98032 9.19923 10.4061C9.07423 10.5702 9.01173 10.7538 9.00001 10.9413V11.0038C9.00001 11.3084 9.13282 11.6092 9.39454 11.8084C9.83595 12.1405 10.4609 12.0506 10.793 11.6092C11.5977 10.5428 12 9.27329 12 7.99985C12 6.72641 11.5977 5.45688 10.793 4.38657C10.6094 4.14047 10.3281 4.00375 10.0391 3.98813V3.98813Z" fill="#2E3436"/>
</g>
<defs>
<clipPath id="clip0_231_1259">
<rect width="16" height="16" fill="white"/>
</clipPath>
</defs>
</svg>
